X:1
L:1/8
Q:1/4=150
M:6/8
K:D
 (3ABc | d2 d dcB | A2 A AGF | A2 A ABc | dcB A2 || (3ABc | d2 d dcB | A2 A AGF | A2 A ABc | 
 dcB A2 |]
